X: 6
T: Jackson's Morning Brush
R: jig
M: 6/8
L: 1/8
K: Dmaj
|:D|DFE EFD|DFA AFA|Bcd def|gee e2D|DFE EFD|DFA AFA|Bcd efg|fdd d2:||:e|fed faf|faf fdA|AFA def|gee e2e|fed (3f/g/a/a|(3f/g/a/a fdA|AFA dge|fdd d2:||:e|fdf ece|dBd AFA|DFA dfa|gee e2e|fdf ece|dBd AFA|DFA Bge|fdd d2:|


Tune 2699	Setting 24706

